X: 1
T: Dermie Diamond's
M: 4/4
L: 1/8
R: reel
K: Bmin
B2 BF ABde | fdef edcd | B2 BF ABdb | afef d4 :|
fgaf g2 bg | afdf efde | fgaf gabg | afdf ef d2 |
fgaf gabg | afdf efdc | B2 BF ABdb | afef d4 |
